X: 8461
T: Craig's
R: reel
M: 4/4
K: Dmajor
FDFA B2Bc|dBcA BEEG|FDFA B2Bc|dBAG FDD2|
FDFA B2Bc|dBcA BEEF|G2GA (3Bcd eg|fdec Add2||
d2fd Adfd|Adfd eBBA|d2fd Adfd|(3fga eg fddA|
d2fd Adfd|Adfd eBBA|g2fd (3efg fe|dBAG FDD2||

